icons/linear-new-office-doc-document-lock 2.svg

<svg xmlns="http://www.w3.org/2000/svg" width="32px" height="32px" viewBox="0 0 32 32" version="1.1">
    <title>linear-new-office-doc-document-lock 2</title>
    <g id="linear-new-office-doc-document-lock" stroke-width="1" fill-rule="evenodd">
        <path d="M27,2 C27.5522847,2 28,2.44771525 28,3 L28.0008411,17.6834702 C27.4889261,16.9131214 26.8037622,16.2678435 26.000963,15.8032504 L26,4 L6,4 L6,28 L15,28 L15,30 L5,30 C4.44771525,30 4,29.5522847 4,29 L4,3 C4,2.44771525 4.44771525,2 5,2 L27,2 Z M23,17 C25.209139,17 27,18.790861 27,21 L27,22 L28,22 C28.5522847,22 29,22.4477153 29,23 L29,29 C29,29.5522847 28.5522847,30 28,30 L18,30 C17.4477153,30 17,29.5522847 17,29 L17,23 C17,22.4477153 17.4477153,22 18,22 L19,22 L19,21 C19,18.790861 20.790861,17 23,17 Z M27,24 L19,24 L19,28 L27,28 L27,24 Z M23,19 C21.8954305,19 21,19.8954305 21,21 L21,22 L25,22 L25,21 C25,19.8954305 24.1045695,19 23,19 Z M15,14 C15.5522847,14 16,14.4477153 16,15 C16,15.5522847 15.5522847,16 15,16 L11,16 C10.4477153,16 10,15.5522847 10,15 C10,14.4477153 10.4477153,14 11,14 L15,14 Z M21,8 C21.5522847,8 22,8.44771525 22,9 C22,9.55228475 21.5522847,10 21,10 L11,10 C10.4477153,10 10,9.55228475 10,9 C10,8.44771525 10.4477153,8 11,8 L21,8 Z" id="&#24418;&#29366;" fill-rule="nonzero" />
    </g>
</svg>

<svg xmlns="http://www.w3.org/2000/svg" viewBox="0 0 32 32"><path fill="currentColor" d="M27 2a1 1 0 0 1 1 1v14.683a6.03 6.03 0 0 0-1.999-1.88L26 4H6v24h9v2H5a1 1 0 0 1-1-1V3a1 1 0 0 1 1-1zm-4 15a4 4 0 0 1 4 4v1h1a1 1 0 0 1 1 1v6a1 1 0 0 1-1 1H18a1 1 0 0 1-1-1v-6a1 1 0 0 1 1-1h1v-1a4 4 0 0 1 4-4m4 7h-8v4h8zm-4-5a2 2 0 0 0-2 2v1h4v-1a2 2 0 0 0-2-2m-8-5a1 1 0 0 1 0 2h-4a1 1 0 0 1 0-2zm6-6a1 1 0 0 1 0 2H11a1 1 0 0 1 0-2z"/></svg>
